!!!!SEGMENT: pl-gd--ee-1638--005-015_marenzio-luca--il-primo-libro-de-madrigali-spirituali-a-cinque-voci-non-fu-mai-cervo.krn
!!!cenid: 15xx:968
!!!COM: Marenzio, Luca
!!!COM-rismID: pe30003955
!!!CDT: ~1553-1599/08/22
!!!CNT: Italian
!!!GTL: Il Primo libro de madrigali spirituali a cinque voci
!!!OTL: Non fu mai cervo
!!!OMV: 015
!!!PDT: 1588
!!!AGN:
!!!SMS-siglum: PL-GD
!!!SMS-shelfmark: Ee 1638
!!!SMS-shelfwork: 005-015 G
!!!SMS-variant:
!!!SMS-altvar:
!!!NIFC-rismSourceID: 1001202747
!!!NIFC-rismChildID: 990039269
!!!NIFC-islandoraID: pl-gd:57883
!!!URL-pdf-islandora: https://repozytorium.nifc.pl/islandora/object/pl-gd%3A57883/datastream/PDF/view
!!!URL-scan: https://polish.musicsources.pl/pl/lokalizacje/galeria/klocki-introligatorskie/655 @EN{Scan on Polish Music Sources Website} @PL{Skany w portalu Dziedzictwo Muzyki Polskiej w otwartym dostępie}
!!!ONB-nifc: UWAGA: zbiór na stronach: Canto: s. 666-677, Alto: s. 514-525, Tenore: s. 362-373, Bassus: s. 210-221, Quinto: s. 58-69. Uwaga: utwory podzielone wg tytułów w spisach treści dostępnych na końcu każdej księgi głosowej.
!!!AIN: 1 alto 1 bass  1 soprn 2 tenor
!!!key: F:ion
**kern	**text	**kern	**text	**kern	**text	**kern	**text	**kern	**text
*part4	*part4	*part5	*part5	*part3	*part3	*part2	*part2	*part1	*part1
*staff4	*staff4	*staff5	*staff5	*staff3	*staff3	*staff2	*staff2	*staff1	*staff1
*I"BASSO	*	*I"QVINTO	*	*I"TENORE	*	*I"ALTO	*	*I"CANTO	*
*mI"Basso	*	*mI"Quinto	*	*mI"Tenore	*	*mI"Alto	*	*mI"Soprano	*
*I'B	*	*I'V 5	*	*I'T	*	*I'A	*	*I'S	*
*Ibass 	*	*Itenor	*	*Itenor	*	*Ialto	*	*Isoprn	*
*ICvox	*	*ICvox	*	*ICvox	*	*ICvox	*	*ICvox	*
*clefC4	*	*clefC3	*	*clefC3	*	*clefC2	*	*clefG2	*
*mclefGv2	*	*mclefGv2	*	*mclefGv2	*	*mclefG2	*	*	*
*k[b-]	*	*k[b-]	*	*k[b-]	*	*k[b-]	*	*k[b-]	*
*F:ion	*	*F:ion	*	*F:ion	*	*F:ion	*	*F:ion	*
*M2/1	*	*M2/1	*	*M2/1	*	*M2/1	*	*M2/1	*
*met(C)	*	*met(C)	*	*met(C)	*	*met(C)	*	*met(C)	*
*mmet(c)	*	*mmet(c)	*	*mmet(c)	*	*mmet(c)	*	*mmet(c)	*
=1-	=1-	=1-	=1-	=1-	=1-	=1-	=1-	=1-	=1-
!!LO:TX:a:t= :mod=Prima parte
!LO:TX:a:i:t=Seſtina Prima parte:mod=	!	!LO:TX:a:i:t=Seſtina Prima parte:mod=	!	!LO:TX:a:i:t=Seſtina Prima parte:mod=	!	!LO:TX:a:i:t=Seſtina Prima parte:mod=	!	!	!
!	!	!	!	!	!	!LO:TX:t=P:problem=przy kluczu B- b-	!	!	!LO:MO:mod=Non
00r	.	00r	.	0r	.	2r	.	2cc\	NOn
.	.	.	.	.	.	2f\	Non	4a/	fu
.	.	.	.	.	.	.	.	4a/	mai
.	.	.	.	.	.	4d/	fu	2dd\	cer-
.	.	.	.	.	.	4d/	mai	.	.
.	.	.	.	.	.	2a\	cer-	2cc\	-vo
=2-	=2-	=2-	=2-	=2-	=2-	=2-	=2-	=2-	=2-
!	!	!	!	!	!LO:MO:mod=Non	!	!	!	!
.	.	.	.	2c/	NOn	2g\	-vo	8gg\	si
.	.	.	.	.	.	.	.	8ff\	ve-
.	.	.	.	.	.	.	.	8ee\	-lo-
.	.	.	.	.	.	.	.	8dd\	-ce_al
.	.	.	.	4A/	fu	8cc\	si	2cc\	cor-
.	.	.	.	.	.	8b-\	ve-	.	.
.	.	.	.	4A/	mai	8a\	-lo-	.	.
.	.	.	.	.	.	8g\	-ce_al	.	.
!	!	!	!	!	!LO:MO:mod=cer-	!	!	!	!
.	.	.	.	2d\	ce-	2f\	cor-	2a/	-ſo
!	!	!	!	!	!LO:MO:mod=-vo	!	!	!	!
.	.	.	.	2c/	-ruo	2e/	-ſo	4r	.
*	*	*	*	*	*	*	*	*	*ij
!	!	!	!	!	!	!	!	!	!LO:MO:mod=non
.	.	.	.	.	.	.	.	4cc\	NOn
=3-	=3-	=3-	=3-	=3-	=3-	=3-	=3-	=3-	=3-
0r	.	2c/	Non	8g\	si	4r	.	2.ee\	fu
.	.	.	.	8f\	ve-	.	.	.	.
*	*	*	*	*	*	*	*ij	*	*
!	!	!	!	!	!	!	!LO:MO:mod=non	!	!
.	.	.	.	8e\	-lo-	4g\	Non	.	.
!	!	!	!	!	!LO:MO:mod=-ce_al	!	!	!	!
.	.	.	.	8d\	-ce	.	.	.	.
.	.	4A/	fu	2c/	cor-	4a\	fu	.	.
.	.	4A/	mai	.	.	4a\	mai	4ff\	mai
!	!	!	!LO:MO:mod=cer-	!LO:N:acc=#	!	!	!	!	!
.	.	2d\	ce-	2Bn/	-ſo	2g\	cer-	4dd\	cer-
.	.	.	.	.	.	.	.	4dd\	-vo
!	!	!	!LO:MO:mod=-vo	!	!	!	!	!	!
.	.	1c\	-ruo	4r	.	2e/	-vo	8gg\	si
.	.	.	.	.	.	.	.	8ff\	ve-
*	*	*	*	*	*ij	*	*	*	*
!	!	!	!	!	!LO:MO:mod=non	!	!	!	!
.	.	.	.	4c/	NOn	.	.	8ee\	-lo-
!	!	!	!	!	!	!	!	!LO:SIC:v:t=custos cc	!
.	.	.	.	.	.	.	.	8dd\	-ce_al
!	!	!	!	!	!	!	!	!LO:LB:g=original	!
=4-	=4-	=4-	=4-	=4-	=4-	=4-	=4-	=4-	=4-
2F/	Non	.	.	4A/	fu	8a\	si	2cc\	cor-
.	.	.	.	.	.	8g\	ve-	.	.
.	.	.	.	4A/	mai	8f\	-lo-	.	.
.	.	.	.	.	.	8g\	-ce_al	.	.
!	!	!	!	!LO:SIC:v:t=custos c	!LO:MO:mod=cer-	!	!	!	!
4D/	fu	8F/	si	2d\	ce-	2a\	cor-	2dd\	-ſo
.	.	8G/	ve-	.	.	.	.	.	.
4D/	mai	8A/	-lo-	.	.	.	.	.	.
!	!	!	!LO:MO:mod=-ce_al	!	!	!	!	!	!
.	.	8B-/	-c'_al	.	.	.	.	.	.
!	!LO:MO:mod=cer-	!	!	!LO:LB:g=original	!LO:MO:mod=-vo	!	!	!	!
2A/	ce-	4c/	cor-	2c/	-ruo	2e/	-ſo	4r	.
*	*	*	*	*	*	*	*	*	*Xij
!	!	!	!	!	!	!	!	!	!LO:MO:mod=non
.	.	4A/	-ſo	.	.	.	.	4a/	Nõ(n)
!	!LO:MO:mod=-vo	!	!	!	!	!	!	!LO:N:acc=#	!
2G/	-ruo	2r	.	8g\	si	4r	.	4bn/	fu
.	.	.	.	8f\	ve-	.	.	.	.
!	!	!	!	!	!	!LO:SIC:v:t=custos e	!LO:MO:mod=non	!	!
.	.	.	.	8e\	-lo-	4g\	Non	4b/	mai
!	!	!	!	!	!LO:MO:mod=-ce_al	!	!	!	!
.	.	.	.	8d\	-ce	.	.	.	.
!	!	!	!	!	!	!LO:LB:g=original	!	!	!
=5-	=5-	=5-	=5-	=5-	=5-	=5-	=5-	=5-	=5-
8c\	si	4r	.	2c/	cor-	4e/	fu	2cc\	cer-
8B-\	ve-	.	.	.	.	.	.	.	.
*	*	*	*ij	*	*	*	*	*	*
!	!	!	!LO:MO:mod=non	!	!	!	!	!	!
8A\	-lo-	4c/	NOn	.	.	4e/	mai	.	.
8G/	-ce_al	.	.	.	.	.	.	.	.
2F/	cor-	4A/	fu	2c/	-ſo	2a\	cer-	2cc\	-vo
!	!	!LO:SIC:v:t=custos d	!	!	!	!	!	!	!
.	.	4A/	mai	.	.	.	.	.	.
!	!	!LO:LB:g=original	!LO:MO:mod=cer-	!	!	!	!	!	!
2G/	-ſo	2d\	ce-	2r	.	2g\	-vo	8b-y/	si
.	.	.	.	.	.	.	.	8cc\	ve-
.	.	.	.	.	.	.	.	8dd\	-lo-
!	!	!	!	!	!	!	!	!	!LO:MO:mod=-ce_al
.	.	.	.	.	.	.	.	8ee\	-ce
!	!	!	!LO:MO:mod=-vo	!	!	!	!	!	!
2A/	Nè	2c/	-ruo	4r	.	8cc\	si	4ff\	cor-
.	.	.	.	.	.	8b-\	ve-	.	.
*	*	*	*	*	*Xij	*	*	*	*
.	.	.	.	4c/	Nè	8a\	-lo-	4cc\	-ſo
.	.	.	.	.	.	8g\	-ce_al	.	.
=6-	=6-	=6-	=6-	=6-	=6-	=6-	=6-	=6-	=6-
!	!LO:MO:mod=Le-	!	!	!	!LO:MO:mod=Le-	!	!	!	!
2B-\	le-	8f\	si	2.d\	le-	2f\	cor-	4r	.
.	.	8e\	ve-	.	.	.	.	.	.
.	.	8d\	-lo-	.	.	.	.	2dd\	Nè
!	!	!	!LO:MO:mod=-ce_al	!	!	!	!	!	!
.	.	8c\	-c'_al	.	.	.	.	.	.
!LO:SIC:v:t=custos A	!	!	!	!	!	!	!	!	!
2G/	-o-	2B-/	cor-	.	.	2g\	-ſo	.	.
!	!	!	!	!	!	!	!	!LO:SIC:s=2ee-i	!LO:MO:mod=Le-
.	.	.	.	4B-y/	-o-	.	.	2ee\	le-
!LO:LB:g=original	!	!	!	!	!	!	!	!	!
2A/	-par-	1A	-ſo	4c/	-par-	4r	.	.	.
*	*	*	*Xij	*	*	*	*Xij	*	*
!	!	!	!	!	!	!	!	!	!LO:MO:mod=-o-
.	.	.	.	4A/	-do_ò	4e/	Nè	2cc\	-o-
!	!	!	!	!	!LO:MO:mod=Ti-	!	!LO:MO:mod=Le-	!	!
2F/	-do_ò	.	.	2a\	ti-	2f\	le-	.	.
!	!	!	!	!	!	!	!	!	!LO:MO:mod=-par-
.	.	.	.	.	.	.	.	2dd\	-par-
=7-	=7-	=7-	=7-	=7-	=7-	=7-	=7-	=7-	=7-
!	!LO:MO:mod=Ti-	!	!	!	!	!	!	!	!
2G/	ti-	0r	.	1g	-gre	2d/	-o-	.	.
!	!	!	!	!	!	!	!	!LO:N:acc=#	!LO:MO:mod=-do_ò
.	.	.	.	.	.	.	.	2bn/	-do_ò
2E/	-gre_in	.	.	.	.	4e/	-par-	.	.
!	!	!	!	!	!	!	!	!	!LO:MO:mod=Ti-
.	.	.	.	.	.	4g\	-do_ò	2cc\	ti-
!	!	!	!	!	!	!	!LO:MO:mod=Ti-	!	!
4F/	al-	.	.	4r	.	4a\	ti-	.	.
4E/	-cun	.	.	4e\	in	4g\	-gre	4cc\	-gre_in
2A/	boſ-	.	.	4f\	al-	4r	.	4cc\	al-
.	.	.	.	4e\	-cun	4c/	in	4a/	-cun
=8-	=8-	=8-	=8-	=8-	=8-	=8-	=8-	=8-	=8-
!	!	!	!	!	!	!	!	!LO:SIC:v:t=custos cc	!
!	!	!	!	!	!	!	!	!LO:N:acc=#	!
1G	-co	2r	.	1g	boſ-	4d/	al-	4bn/	bo-
!	!	!	!	!	!	!	!	!LO:LB:g=original	!
.	.	.	.	.	.	4e/	-cun	2cc\	.
.	.	2g\	Nè	.	.	2d/	boſ-	.	.
!	!	!	!	!	!	!	!	!LO:N:acc=#	!
.	.	.	.	.	.	.	.	4bn/	.
!	!	!LO:SIC:s=8cL	!	!	!	!	!	!	!
2r	.	8c/	fiu-	2e\	-co	1g	-co	1cc	-ſco
.	.	8d\	.	.	.	.	.	.	.
.	.	8e\	.	.	.	.	.	.	.
!	!	!LO:SIC:s=8fJ	!	!	!	!	!	!	!
.	.	8f\	.	.	.	.	.	.	.
2c\	Nè	4g\	.	2e\	Nè	.	.	.	.
!	!	!	!LO:MO:mod=-me_ai-	!	!	!	!	!	!
.	.	4e\	-m'_ai-	.	.	.	.	.	.
=9-	=9-	=9-	=9-	=9-	=9-	=9-	=9-	=9-	=9-
!LO:SIC:s=8FL	!	!	!	!	!	!	!	!	!
8F/	fiu-	2a\	-ta-	2f\	fiu-	1r	.	2r	.
8G/	.	.	.	.	.	.	.	.	.
8A/	.	.	.	.	.	.	.	.	.
!LO:SIC:s=8B-J	!	!	!	!	!	!	!	!	!
8B-\	.	.	.	.	.	.	.	.	.
!	!	!	!	!LO:SIC:v:t=custos d	!	!	!	!	!
4c\	.	4g\	-to	2e\	-me	.	.	2cc\	Nè
!	!LO:MO:mod=-me_ai-	!	!	!	!	!	!	!	!
4A/	-m'_ai-	4.a\	da	.	.	.	.	.	.
!	!	!	!	!LO:LB:g=original	!	!	!	!LO:SIC:s=8fL	!
2d\	-ta-	.	.	1r	.	2r	.	8f/	fiu-
.	.	8g\	con-	.	.	.	.	8g/	.
.	.	8f\	-ti-	.	.	.	.	8a/	.
!	!	!	!	!	!	!	!	!LO:SIC:s=8b-J	!
.	.	8f\	-nua	.	.	.	.	8b-y/	.
4c\	-to	4e\	piog-	.	.	2a\	Nè	4cc\	.
!	!	!LO:SIC:v:t=custos d	!	!	!	!	!	!	!LO:MO:mod=-me_ai-
4.d\	da	4d\	-gia	.	.	.	.	4a/	-m'_ai-
!	!	!LO:LB:g=original	!	!	!	!	!	!	!
=10-	=10-	=10-	=10-	=10-	=10-	=10-	=10-	=10-	=10-
!	!	!	!	!	!	!LO:SIC:s=8dL	!	!	!
.	.	1r	.	2r	.	8d/	fiu-	2dd\	-ta-
!	!	!	!	!	!	!LO:SIC:v:t=custos f	!	!	!
8c\	con-	.	.	.	.	8e/	.	.	.
!	!	!	!	!	!	!LO:LB:g=original	!	!	!
8B-\	-ti-	.	.	.	.	8f\	.	.	.
!LO:SIC:v:t=custos A	!	!	!	!	!	!LO:SIC:s=8gJ	!	!	!
8B-\	-nua	.	.	.	.	8g\	.	.	.
!LO:LB:g=original	!	!	!	!	!	!	!	!	!
4A/	piog-	.	.	4r	.	4a\	.	4cc\	-to
!	!	!	!	!	!LO:MO:mod=nè	!	!LO:MO:mod=-me_ai-	!	!
4G/	-gia	.	.	4d\	Nè	4d/	-m'_ai-	4.dd\	da
!	!	!	!	!LO:SIC:s=8GL	!	!	!	!	!
1r	.	2r	.	8G/	fiu-	2g\	-ta-	.	.
.	.	.	.	8A/	.	.	.	8cc\	con-
.	.	.	.	8B-/	.	.	.	8b-/	-ti-
!	!	!	!	!LO:SIC:s=8GJ	!	!	!	!	!
.	.	.	.	8G/	.	.	.	8b-/	-nua
.	.	4r	.	4d\	.	4f#X\	-to	4a/	piog-
*	*	*	*ij	*	*	*	*	*	*
!	!	!	!LO:MO:mod=nè	!	!LO:MO:mod=-me_ai-	!	!	!	!
.	.	4d\	Nè	4G/	-m'_ai-	4.g\	da	4g/	-gia
=11-	=11-	=11-	=11-	=11-	=11-	=11-	=11-	=11-	=11-
!	!	!LO:SIC:s=8eL	!	!	!	!	!	!	!
00r	.	8e\	fiu-	2c/	-ta-	.	.	2r	.
!	!	!	!	!	!	!LO:SIC:s=8fi	!	!	!
.	.	8f\	.	.	.	8fny\	con-	.	.
.	.	8g\	.	.	.	8e/	-ti-	.	.
!	!	!LO:SIC:s=8aJ	!	!	!	!	!	!	!
.	.	8a\	.	.	.	8e/	-nua	.	.
*	*	*	*	*	*	*	*	*	*ij
!	!	!	!	!LO:N:acc=#	!	!	!	!	!LO:MO:mod=nè
.	.	4g\	.	4Bn/	-to	4d/	piog-	2gg\	Nè
.	.	4e\	-me_ai-	4.c/	da	4c/	-gia	.	.
!	!	!	!	!	!	!	!	!LO:SIC:s=8ccL	!
.	.	2a\	-ta-	.	.	2r	.	8cc\	fiu-
!	!	!	!	!LO:SIC:s=8B-i	!	!	!	!	!
.	.	.	.	8B/	con-	.	.	8dd\	.
.	.	.	.	8A/	-ti-	.	.	8ee\	.
!	!	!	!	!	!	!	!	!LO:SIC:s=8ffJ	!
.	.	.	.	8A/	-nua	.	.	8ff\	.
.	.	4d\	-to	4G/	piog-	4r	.	4gg\	.
!	!	!	!	!	!	!	!	!	!LO:MO:mod=-me_ai-
.	.	4.f\	da	4F/	-gia	4.a\	da	4cc\	-m'_ai-
=12-	=12-	=12-	=12-	=12-	=12-	=12-	=12-	=12-	=12-
.	.	.	.	0r	.	.	.	2ff\	-ta-
.	.	8e\	con-	.	.	8g\	con-	.	.
.	.	8d\	-ti-	.	.	8f\	-ti-	.	.
.	.	8d\	-nua	.	.	8f\	-nua	.	.
!	!	!	!	!	!	!	!	!LO:SIC:v:t=custos cc	!
.	.	1.c	piog-	.	.	4.g\	piog-	4ee\	-to
!	!	!	!	!	!	!	!	!LO:LB:g=original	!
.	.	.	.	.	.	.	.	4.cc\	da
.	.	.	.	.	.	8f\	.	.	.
.	.	.	.	.	.	4e/	.	.	.
.	.	.	.	.	.	.	.	8b-/	con-
.	.	.	.	.	.	2f\	.	8a/	-ti-
.	.	.	.	.	.	.	.	8a/	-nua
.	.	.	.	.	.	.	.	2g/	piog-
.	.	.	.	.	.	4e/	.	.	.
=13-	=13-	=13-	=13-	=13-	=13-	=13-	=13-	=13-	=13-
2r	.	1F	-a	2r	.	1f	-gia	2f/	-gia
*	*	*	*Xij	*	*	*	*	*	*Xij
2F/	Nè	.	.	2f\	Nè	.	.	2a/	Nè
2c\	nu-	2r	.	2e\	nu-	2r	.	2g/	nu-
!	!	!	!	!LO:SIC:v:t=custos e	!	!	!	!	!
2F/	-be	2f\	Nè	2f\	-be	2a\	Nè	4.a/	-be
.	.	.	.	.	.	.	.	8b-/	.
!	!	!	!	!LO:LB:g=original	!	!	!	!	!
=14-	=14-	=14-	=14-	=14-	=14-	=14-	=14-	=14-	=14-
!	!	!	!	!	!	!LO:SIC:v:t=custos a	!	!	!
4r	.	2e\	nu-	4r	.	2g\	nu-	2cc\	.
4c\	che	.	.	4e\	che	.	.	.	.
!	!	!	!	!	!	!LO:LB:g=original	!	!	!
4A/	s'af-	2f\	-be	4c/	s'af-	2a\	-be	2r	.
4.d\	-fret-	.	.	4.f\	-fret-	.	.	.	.
!	!	!	!	!	!	!	!	!	!LO:MO:mod=nè
.	.	2r	.	.	.	2r	.	2ff\	Nè
!	!LO:MO:mod=-ti_in-	!	!	!	!LO:MO:mod=-ti_in-	!	!	!	!
8e\	-t'_in-	.	.	8g\	-t'_in-	.	.	.	.
!	!LO:MO:mod=-an-	!	!	!	!LO:MO:mod=-an-	!	!	!	!
8f\	-a(n)-	.	.	8a\	-a(n)-	.	.	.	.
8d\	-zi_al	.	.	8f\	-zi_al	.	.	.	.
2c\	ven-	4r	.	2g\	ven-	4r	.	2ee\	nu-
!	!	!LO:SIC:v:t=custos A	!	!	!	!	!	!	!
.	.	4c/	che	.	.	4e/	che	.	.
!	!	!LO:LB:g=original	!	!	!	!	!	!	!
=15-	=15-	=15-	=15-	=15-	=15-	=15-	=15-	=15-	=15-
2F/	-to	4A/	s'af-	2a\	-to	4c/	s'af-	2ff\	-be
.	.	4.d\	-fret-	.	.	4.f\	-fret-	.	.
!	!	!	!	!	!LO:MO:mod=nè	!	!	!	!
2r	.	.	.	2f\	Nè	.	.	2r	.
!	!	!	!LO:MO:mod=-ti_in-	!	!	!	!LO:MO:mod=-ti_in-	!	!
.	.	8e\	-t'_in-	.	.	8g\	-t'_in-	.	.
!	!	!	!LO:MO:mod=-an-	!	!	!	!LO:MO:mod=-an-	!	!
.	.	8f\	-a(n)-	.	.	8a\	-a(n)-	.	.
.	.	8d\	-zi_al	.	.	8f\	-zi_al	.	.
1r	.	2c/	ven-	2e\	nu-	2g\	ven-	4r	.
.	.	.	.	.	.	.	.	4cc\	che
.	.	2F/	-to	2f\	-be	2a\	-to	4a/	s'af-
.	.	.	.	.	.	.	.	4.dd\	-fret-
=16-	=16-	=16-	=16-	=16-	=16-	=16-	=16-	=16-	=16-
!	!	!	!LO:MO:mod=nè	!	!	!	!LO:MO:mod=nè	!	!
0r	.	2B-/	Nè	1r	.	2f\	Nè	.	.
.	.	.	.	.	.	.	.	8ee\	-ti_in-
!	!	!	!	!	!	!	!	!	!LO:MO:mod=-an-
.	.	.	.	.	.	.	.	8ff\	-a(n)-
.	.	.	.	.	.	.	.	8dd\	-zi_al
!	!	!	!	!	!	!	!	!	!LO:MO:mod=ven-
.	.	2A/	nu-	.	.	2f\	nu-	2cc\	ve(n)-
!	!	!	!	!	!LO:MO:mod=nè	!	!	!	!
.	.	2B-/	-be	2f\	Nè	2d/	-be	4f/	-to
!	!	!	!	!	!	!	!	!	!LO:MO:mod=nè
.	.	.	.	.	.	.	.	4b-/	Nè
!	!	!	!	!	!	!	!	!LO:SIC:v:t=custos a	!
.	.	4r	.	2e\	nu-	4r	.	2g/	nu-
.	.	4c/	che	.	.	4e/	che	.	.
!	!	!	!	!	!	!	!	!LO:LB:g=original	!
=17-	=17-	=17-	=17-	=17-	=17-	=17-	=17-	=17-	=17-
2r	.	4A/	s'af-	1f	-be	4c/	s'af-	1a	-be
!	!	!	!LO:MO:mod=-fret-	!	!	!	!LO:MO:mod=-fret-	!	!
.	.	4.d\	-fret'	.	.	4.f\	-fret'	.	.
!	!LO:MO:mod=nè	!	!	!	!	!	!	!	!
2F/	Nè	.	.	.	.	.	.	.	.
!	!	!	!LO:MO:mod=-ti_in-	!	!	!	!LO:MO:mod=-ti_in-	!	!
.	.	8e\	i-	.	.	8g\	i-	.	.
!	!	!	!LO:MO:mod=-an-	!	!	!	!LO:MO:mod=-an-	!	!
.	.	8f\	-a(n)-	.	.	8a\	-a(n)-	.	.
.	.	8d\	-zi_al	.	.	8f\	-zi_al	.	.
!LO:SIC:v:t=custos F	!	!	!	!	!	!	!	!	!
2E/	nu-	2.c/	ven-	4r	.	2g\	ven-	4r	.
.	.	.	.	4c/	che	.	.	4e/	che
!LO:LB:g=original	!	!	!	!	!LO:MO:mod=s'af-	!	!	!	!LO:MO:mod=s'af-
2F/	-be	.	.	4A/	s af-	2a\	-to	4c/	s af-
!	!	!	!	!	!LO:MO:mod=-fret-	!	!	!	!LO:MO:mod=-fret-
.	.	4A/	-to	4.d\	-fret'	.	.	4.f/	-fret'
=18-	=18-	=18-	=18-	=18-	=18-	=18-	=18-	=18-	=18-
2r	.	2r	.	.	.	2f\	nè	.	.
!	!	!	!	!	!LO:MO:mod=-ti_in-	!	!	!	!LO:MO:mod=-ti_in-
.	.	.	.	8e\	i-	.	.	8g/	i-
!	!	!	!	!	!LO:MO:mod=-an-	!	!	!	!LO:MO:mod=-an-
.	.	.	.	8f\	-a(n)-	.	.	8a/	-a(n)-
.	.	.	.	8d\	-zi_al	.	.	8f/	-zi_al
!	!	!	!	!LO:SIC:v:t=custos F	!LO:MO:mod=ven-	!LO:SIC:v:t=custos f	!	!	!LO:MO:mod=ven-
4r	.	4r	.	2c/	ve(n)-	2e/	nu-	2g/	ve(n)-
!	!	!LO:SIC:v:t=custos c	!	!	!	!	!	!	!
*	*	*	*ij	*	*	*	*	*	*
4c\	che	4e\	che	.	.	.	.	.	.
!	!LO:MO:mod=s'af-	!LO:LB:g=original	!LO:MO:mod=s'af-	!LO:LB:g=original	!	!LO:LB:g=original	!	!	!
4A/	s af-	4c/	s af-	2F/	-to	1f	-be	4a/	-to
!	!LO:MO:mod=-fret-	!	!LO:MO:mod=-fret-	!	!	!	!	!	!LO:MO:mod=in-
4.d\	-fret'-	4.f\	-fret'-	.	.	.	.	4f/	i-
!	!	!	!	!	!	!	!	!	!LO:MO:mod=-an-
.	.	.	.	4r	.	.	.	4.a/	-a(n)-
!	!LO:MO:mod=-ti_in-	!	!LO:MO:mod=-ti_in-	!	!	!	!	!	!
8e\	-in-	8g\	-in-	.	.	.	.	.	.
!	!LO:MO:mod=-an-	!	!LO:MO:mod=-an-	!	!LO:MO:mod=in-	!	!	!	!
8f\	-nan-	8a\	-nan-	4d\	i-	.	.	.	.
8d\	-zi_al	8f\	-zi_al	.	.	.	.	8b-/	-zi_al
=19-	=19-	=19-	=19-	=19-	=19-	=19-	=19-	=19-	=19-
!	!	!	!	!	!LO:MO:mod=-an-	!	!	!	!LO:MO:mod=ven-
1c	ven-	4g\	ven-	4e\	-a(n)-	1r	.	1cc	ve(n)-
.	.	2f\	.	4f\	-zi_al	.	.	.	.
!	!	!	!	!	!LO:MO:mod=ven-	!	!	!	!
.	.	.	.	2g\	ve(n)-	.	.	.	.
.	.	4e\	.	.	.	.	.	.	.
2F/	-to	2f\	-to	2a\	-to	2r	.	1cc	-to
1A\	Nè	4r	.	4r	.	2cc\	Nè	.	.
*	*	*	*Xij	*	*	*	*	*	*
.	.	4e\	Nè	4a\	Nè	.	.	.	.
=20-	=20-	=20-	=20-	=20-	=20-	=20-	=20-	=20-	=20-
.	.	1f	vo-	8a\	vo-	8cc\	vo-	2r	.
.	.	.	.	8g\	-la	8b-\	-la	.	.
.	.	.	.	8f\	ſi	8a\	ſi	.	.
.	.	.	.	8e\	leg-	8g\	leg-	.	.
1B-	vo-	.	.	2d\	-gier	4f\	-gier	4r	.
*	*	*	*	*	*ij	*	*ij	*	*
!	!	!	!	!	!	!	!LO:MO:mod=nè	!	!
.	.	.	.	.	.	4b-\	Nè	4dd\	Nè
.	.	1g	-la	4r	.	8b-\	vo-	8dd\	vo-
.	.	.	.	.	.	8a\	-la	8cc\	-la
!	!	!	!	!	!LO:MO:mod=nè	!	!	!	!
.	.	.	.	4g\	Nè	8g\	ſi	8b-/	ſi
.	.	.	.	.	.	8f\	leg-	8a/	leg-
1c\	-la	.	.	8g\	vo-	2e/	-gier	4g/	-gier
.	.	.	.	8f\	-la	.	.	.	.
*	*	*	*	*	*	*	*Xij	*	*ij
!	!	!	!	!	!	!	!	!	!LO:MO:mod=nè
.	.	.	.	8e\	ſi	.	.	4gg\	Nè
.	.	.	.	8d\	leg-	.	.	.	.
=21-	=21-	=21-	=21-	=21-	=21-	=21-	=21-	=21-	=21-
.	.	1e	ſi	1c	-gier	2r	.	8gg\	vo-
.	.	.	.	.	.	.	.	8ff\	-la
.	.	.	.	.	.	.	.	8ee\	ſi
.	.	.	.	.	.	.	.	8dd\	leg-
!	!	!	!	!	!	!	!	!LO:SIC:v:t=custos ee	!
1A	ſi	.	.	.	.	4r	.	4cc\	-gier
!	!	!	!	!	!	!	!LO:MO:mod=nè	!LO:LB:g=original	!LO:MO:mod=nè
.	.	.	.	.	.	4cc\	Nè	4ee\	Nè
.	.	2e\	leg-	2r	.	8cc\	vo-	8ee\	vo-
.	.	.	.	.	.	8b-\	-la	8dd\	-la
.	.	.	.	.	.	8a\	ſi	8cc\	ſi
.	.	.	.	.	.	8g\	leg-	8b-\	leg-
*	*	*	*	*	*Xij	*	*	*	*
!	!	!	!	!LO:SIC:s=8dL	!	!	!	!	!
2d\	leg-	2f\	-gier	8d\	dar-	2f\	-gier	2a/	-gier
.	.	.	.	8e\	.	.	.	.	.
.	.	.	.	8f\	.	.	.	.	.
!	!	!	!	!LO:SIC:s=8dJ	!	!	!	!	!
!	!	!	!	!LO:SIC:v:t=custos g	!	!	!	!	!
.	.	.	.	8d\	.	.	.	.	.
*	*	*	*	*	*	*	*	*	*Xij
!	!	!	!	!LO:LB:g=original	!	!	!	!	!
=22-	=22-	=22-	=22-	=22-	=22-	=22-	=22-	=22-	=22-
!	!	!LO:SIC:s=8cL	!	!	!	!LO:SIC:s=8eL	!	!	!
2c\	-gier	8c/	dar-	2g\	.	8e/	dar-	2r	.
.	.	8d\	.	.	.	8f\	.	.	.
.	.	8e\	.	.	.	8g\	.	.	.
!	!	!LO:SIC:s=8cJ	!	!	!	!LO:SIC:s=8eJ	!	!	!
.	.	8c\	.	.	.	8e\	.	.	.
!LO:SIC:s=8FL	!	!	!	!	!	!LO:SIC:v:t=custos a	!	!LO:SIC:s=8aL	!
8F/	dar-	4f\	.	2f\	-do	4a\	.	8a/	dar-
8G/	.	.	.	.	.	.	.	8b-\	.
!	!	!	!	!	!	!LO:LB:g=original	!	!	!
8A/	.	8c/	-do	.	.	4a\	-do	8cc\	.
!LO:SIC:s=8FJ	!	!LO:SIC:v:t=custos d	!LO:MO:mod=ne	!	!	!	!	!LO:SIC:s=8aJ	!
8F/	.	8c/	Nè	.	.	.	.	8a/	.
!LO:SIC:v:t=custos F	!	!LO:LB:g=original	!	!	!	!LO:SIC:s=8fL	!	!	!
4B-\	.	4d\	ſtra-	2r	.	8f\	dar-	4dd\	.
.	.	.	.	.	.	8g\	.	.	.
!LO:LB:g=original	!	!	!	!	!	!	!	!	!
8F/	-do	4A/	-le	.	.	8a\	.	8cc\	do
!	!LO:MO:mod=ne	!	!	!	!	!LO:SIC:s=8fJ	!	!	!
8F/	Nè	.	.	.	.	8f\	.	8cc\	ne
!	!	!	!	!	!LO:MO:mod=nè	!	!	!	!
4G/	ſtra-	2r	.	2d\	Nè	4b-\	.	4b-/	ſtra-
4D/	-le	.	.	.	.	8f\	-do	4a/	-le
!	!	!	!	!	!	!	!LO:MO:mod=ne	!	!
.	.	.	.	.	.	8f\	nè	.	.
=23-	=23-	=23-	=23-	=23-	=23-	=23-	=23-	=23-	=23-
4r	.	4r	.	8G/	vo-	4g\	ſtra-	2r	.
.	.	.	.	8A/	-la	.	.	.	.
!	!LO:MO:mod=nè	!	!LO:MO:mod=nè	!	!	!	!	!	!
4d\	Nè	4f\	Nè	8B-y/	ſi	4d/	-le	.	.
.	.	.	.	8c/	leg-	.	.	.	.
8d\	vo-	8f\	vo-	2d\	-gier	4r	.	4r	.
8c\	-la	8e\	-la	.	.	.	.	.	.
!	!	!	!	!	!	!	!LO:MO:mod=nè	!	!LO:MO:mod=nè
8B-\	ſi	8d\	ſi	.	.	4b-\	Nè	4dd\	Nè
8A\	leg-	8c/	leg-	.	.	.	.	.	.
2G/	-gier	2B-/	-gier	2r	.	8b-\	vo-	8dd\	vo-
.	.	.	.	.	.	8a\	-la	8cc\	-la
.	.	.	.	.	.	8g\	ſi	8b-/	ſi
.	.	.	.	.	.	8f\	leg-	8a/	leg-
!	!	!LO:SIC:s=8cL	!	!LO:SIC:s=8eL	!	!	!	!	!
2r	.	8c/	dar-	8e\	dar-	2e/	-gier	4g/	-gier
.	.	8d\	.	8f\	.	.	.	.	.
.	.	8e\	.	8g\	.	.	.	4.cc\	dar-
!	!	!LO:SIC:s=8cJ	!	!LO:SIC:s=8eJ	!	!	!	!	!
.	.	8c\	.	8e\	.	.	.	.	.
=24-	=24-	=24-	=24-	=24-	=24-	=24-	=24-	=24-	=24-
2r	.	4f\	.	4a\	.	2r	.	.	.
.	.	.	.	.	.	.	.	8cc\	-do
!	!	!	!	!	!	!	!	!	!LO:MO:mod=ne
.	.	8c\	-do	8e\	-do	.	.	4cc\	nè
!	!	!	!	!	!LO:MO:mod=ne	!	!	!	!
.	.	8c\	ne	8e\	nè	.	.	.	.
4r	.	4d\	ſtra-	4f\	ſtra-	4r	.	2a/	ſtra-
*	*ij	*	*	*	*	*	*ij	*	*
!	!LO:MO:mod=nè	!	!	!	!	!	!LO:MO:mod=nè	!	!
4A/	Nè	4A/	-le	4c/	-le	4cc\	Nè	.	.
8A\	vo-	4r	.	1r	.	8cc\	vo-	4a/	-le
8G/	-la	.	.	.	.	8b-\	-la	.	.
!	!	!	!	!	!	!	!	!LO:SIC:v:t=custos ff	!
*	*	*	*	*	*	*	*	*	*ij
!	!	!	!LO:MO:mod=nè	!	!	!	!	!	!LO:MO:mod=nè
8F/	ſi	4a\	Nè	.	.	8a\	ſi	4ff\	Nè
8E/	leg-	.	.	.	.	8g\	leg-	.	.
!	!	!	!	!	!	!	!	!LO:LB:g=original	!
2D/	-gier	8a\	vo-	.	.	2f\	-gier	8ff\	vo-
.	.	8g\	-la	.	.	.	.	8ee\	-la
.	.	8f\	si	.	.	.	.	8dd\	ſi
*	*Xij	*	*	*	*	*	*Xij	*	*
!	!	!LO:SIC:v:t=custos d	!	!	!	!	!	!	!
.	.	8e\	leg-	.	.	.	.	8cc\	leg-
!	!	!LO:LB:g=original	!	!	!	!	!	!	!
=25-	=25-	=25-	=25-	=25-	=25-	=25-	=25-	=25-	=25-
!LO:SIC:s=8GL	!	!	!	!LO:SIC:s=8B-L	!	!	!	!	!
8G/	dar-	2d\	-gier	8B-/	dar-	2r	.	2b-/	-gier
!LO:SIC:v:t=custos B	!	!	!	!	!	!	!	!	!
8A/	.	.	.	8c/	.	.	.	.	.
!LO:LB:g=original	!	!	!	!	!	!	!	!	!
8B-\	.	.	.	8d\	.	.	.	.	.
!LO:SIC:s=8GJ	!	!	!	!LO:SIC:s=8B-J	!	!	!	!	!
8G/	.	.	.	8B-/	.	.	.	.	.
!	!	!	!	!	!	!LO:SIC:s=8fL	!	!LO:SIC:s=8aL	!
4d\	.	2r	.	4f\	.	8f\	dar-	8a/	dar-
.	.	.	.	.	.	8g\	.	8b-/	.
8A/	-do	.	.	8e\	-do	8a\	.	8cc\	.
!	!	!	!	!	!	!LO:SIC:s=8fJ	!	!LO:SIC:s=8aJ	!
!	!LO:MO:mod=ne	!	!	!LO:SIC:v:t=custos d	!LO:MO:mod=ne	!LO:SIC:v:t=custos g	!	!	!
8A/	nè	.	.	8c/	nè	8f\	.	8a/	.
!	!	!LO:SIC:s=8dL	!	!LO:LB:g=original	!	!LO:LB:g=original	!	!	!
2B-\	ſtra-	8d\	dar-	4d\	ſtra-	4g\	.	4dd\	.
.	.	8e\	.	.	.	.	.	.	.
.	.	8f\	.	4d\	-le	8d/	-do	8dd\	-do
!	!	!LO:SIC:s=8dJ	!	!	!	!	!LO:MO:mod=ne	!	!LO:MO:mod=ne
.	.	8d\	.	.	.	8d/	nè	8dd\	nè
!	!LO:MO:mod=-le.	!	!	!	!	!	!	!	!
2A/	-le	4a\	.	2r	.	2e/	ſtra-	2cc#X\	ſtra-
.	.	8e\	-do	.	.	.	.	.	.
!	!	!	!LO:MO:mod=ne	!	!	!	!	!	!
.	.	8e\	nè	.	.	.	.	.	.
=26-	=26-	=26-	=26-	=26-	=26-	=26-	=26-	=26-	=26-
!	!	!	!	!	!	!	!	!	!LO:MO:mod=-le.
1r	.	2f\	ſtra-	4r	.	4d/	-le	2dd\	-le
!	!	!	!	!	!LO:MO:mod=ne	!	!LO:MO:mod=ne	!	!
.	.	.	.	4d\	nè	4a\	nè	.	.
!	!	!	!LO:MO:mod=-le.	!	!	!	!	!	!
.	.	2e\	-le	2c#X/	ſtra-	2a\	ſtra-	2r	.
*	*	*	*	*	*	*	*	*	*Xij
=27-	=27-	=27-	=27-	=27-	=27-	=27-	=27-	=27-	=27-
*M3/1	*	*M3/1	*	*M3/1	*	*M3/1	*	*M3/1	*
*met(C.)	*	*met(C.)	*	*met(C.)	*	*met(C.)	*	*met(C.)	*
!	!	!	!	!	!LO:MO:mod=-le.	!	!LO:MO:mod=-le.	!	!
2r	.	2r	.	1d	-le	1a	-le	1ff	Co-
2d\	Co-	2d\	Co-	.	.	.	.	.	.
2c\	-me	2e\	-me	2r	.	2r	.	2ee\	-me
2.B-\	queſ-	2.f\	queſ-	1.r	.	1.r	.	2.dd\	queſ-
4A\	-ta	4f\	-ta	.	.	.	.	4ccny\	-ta
2G/	ca-	2g\	ca-	.	.	.	.	2b-\	ca-
=28-	=28-	=28-	=28-	=28-	=28-	=28-	=28-	=28-	=28-
1F	-du-	1c	-du-	1f	Co-	2r	.	1a	-du-
.	.	.	.	.	.	2a\	Co-	.	.
2C/	-ca	2c/	-ca	2e\	-me	2g\	-me	2cc\	-ca_e
1.r	.	2r	.	2.d\	queſ-	2.f\	queſ-	2b-/	bre-
!	!	!	!	!	!	!	!	!LO:SIC:v:t=custos dd	!LO:MO:mod=-ve
.	.	2.f\	e	.	.	.	.	2a/	-ue
.	.	.	.	4cny\	-ta	4e\	-ta	.	.
!	!	!	!	!	!	!	!	!LO:LB:g=original	!
.	.	.	.	2B-/	ca-	2d/	ca-	2dd\	vi-
!	!	!LO:SIC:v:t=custos a	!	!	!	!	!	!	!
.	.	4g\	.	.	.	.	.	.	.
!	!	!LO:LB:g=original	!	!	!	!	!	!	!
=29-	=29-	=29-	=29-	=29-	=29-	=29-	=29-	=29-	=29-
0.r	.	1a	.	2A/	-du-	1e	-du-	1cc	-ta
.	.	.	.	2c\	-ca_e	.	.	.	.
.	.	2d\	bre-	2B-/	bre-	2g\	-ca_e	2r	.
*	*	*col	*	*col	*	*	*	*	*
!	!	!	!LO:MO:mod=-ve	!	!LO:MO:mod=-ve	!	!	!	!
.	.	2e\	-ue	2A/	-ue	2.a\	bre-	2cc\	e
.	.	1f	vi-	1d	vi-	.	.	2a/	bre-
!	!	!	!	!	!	!	!LO:MO:mod=-ve	!	!
.	.	.	.	.	.	4g\	-ue	.	.
!	!	!	!	!	!	!	!	!LO:N:acc=#	!LO:MO:mod=-ve
.	.	.	.	.	.	1f\	vi-	2bn/	-ue
*	*	*Xcol	*	*Xcol	*	*	*	*	*
=30-	=30-	=30-	=30-	=30-	=30-	=30-	=30-	=30-	=30-
!	!	!	!	!LO:SIC:v:t=custos c	!	!	!	!	!
1.r	.	1g	-ta	1.c	-ta	.	.	1cc	vi-
.	.	.	.	.	.	2e\	-ta	.	.
.	.	2r	.	.	.	2r	.	2cc\	-ta
!	!	!	!	!LO:LB:g=original	!	!	!	!	!
*	*ij	*	*ij	*	*	*	*ij	*	*
!	!LO:MO:mod=co-	!	!LO:MO:mod=co-	!LO:MO:mod=1.r	!	!	!LO:MO:mod=co-	!	!
1F	Co-	1a	Co-	00.r	.	1cc	Co-	2r	.
!	!	!	!	!	!	!	!	!	!LO:MO:mod=co-
.	.	.	.	.	.	.	.	2ff\	Co-
!LO:SIC:v:t=custos d	!	!	!	!	!	!LO:SIC:v:t=custos a	!	!	!
2c\	-me	2g\	-me	.	.	2cc\	-me	2ee\	-me
!LO:LB:g=original	!	!	!	!	!	!LO:LB:g=original	!	!	!
=31-	=31-	=31-	=31-	=31-	=31-	=31-	=31-	=31-	=31-
!	!	!	!	!LO:MO:null:mod=0.r	!	!	!	!	!
2.d\	queſ-	2.f\	queſ-	.	.	2.a\	queſ-	2.dd\	queſ-
4A/	-ta	4e\	-ta	.	.	4a\	-ta	4cc\	-ta
2B-\	ca-	2d\	ca-	.	.	2f\	ca-	2b-y\	ca-
1F	-du-	1c	-du-	.	.	1f	-du-	1a	-du-
2c\	-ca_e	2c/	-ca_e	.	.	2e\	-ca_e	2g/	-ca
=32-	=32-	=32-	=32-	=32-	=32-	=32-	=32-	=32-	=32-
*col	*Xij	*col	*	*	*	*	*	*	*
!	!	!	!	!LO:MO:null:mod=0.r	!	!	!	!	!
2B-\	bre-	2d\	bre-	.	.	2g\	bre-	2r	.
!	!LO:MO:mod=-ve	!	!LO:MO:mod=-ve	!	!	!	!LO:MO:mod=-ve	!	!
2A/	-ue	2e\	-ue	.	.	1a	-ue	2cc\	e
1d\	vi-	1f\	vi-	.	.	.	.	2a/	bre-
*	*	*	*	*	*	*	*	*col	*
!	!	!	!	!LO:MO:mod=.	!	!	!	!LO:N:acc=#	!LO:MO:mod=-ve
.	.	.	.	1.r	.	1f	vi-	2bn/	-ue
1c	-ta	1g	-ta	.	.	.	.	1cc	vi-
.	.	.	.	.	.	2e\	.	.	.
*Xcol	*	*Xcol	*Xij	*	*	*	*	*Xcol	*
=33-	=33-	=33-	=33-	=33-	=33-	=33-	=33-	=33-	=33-
*M2/1	*	*M2/1	*	*M2/1	*	*M2/1	*	*M2/1	*
*met(C)	*	*met(C)	*	*met(C)	*	*met(C)	*	*met(C)	*
*mmet(c)	*	*mmet(c)	*	*mmet(c)	*	*mmet(c)	*	*mmet(c)	*
2r	.	1r	.	2r	.	1f	-ta	1a	-ta
2F/	e	.	.	2c/	e	.	.	.	.
2D/	bre-	2r	.	2B-/	bre-	2r	.	2r	.
*	*	*	*	*	*	*	*Xij	*	*ij
!	!LO:MO:mod=-ve	!	!	!	!LO:MO:mod=-ve	!	!	!	!
2F/	-ue	2c/	e	2A/	-ue	2a\	e	2ff\	e
=34-	=34-	=34-	=34-	=34-	=34-	=34-	=34-	=34-	=34-
*lig	*	*	*	*	*	*	*	*	*
1BB-	vi-	2B-/	bre-	1d	vi-	4g\	bre-	2dd\	bre-
!	!	!	!	!	!	!	!LO:MO:mod=-ve	!	!
.	.	.	.	.	.	4f\	-ue	.	.
!	!	!	!	!	!	!	!	!	!LO:MO:mod=-ve
.	.	2A/	-ve	.	.	2.f\	vi-	2ff\	-ue
1C	.	1G	vi-	[1cl	-ta.	.	.	1cc	vi-
!	!	!	!	!	!	!LO:SIC:s=8eL	!	!	!
.	.	.	.	.	.	8e/	.	.	.
!	!	!	!	!	!	!LO:SIC:s=8dJ	!	!	!
.	.	.	.	.	.	8d/	.	.	.
.	.	.	.	.	.	2e/	.	.	.
*Xlig	*	*	*	*	*	*	*	*	*
=35-	=35-	=35-	=35-	=35-	=35-	=35-	=35-	=35-	=35-
!	!	!	!	!	!	!	!	!	!LO:MO:mod=-ta.
0Fl	-ta.	0Fl	-ta.	0c]	.	0fl	-ta.	0al	-ta
*	*	*	*	*	*	*	*	*	*Xij
==	==	==	==	==	==	==	==	==	==
*-	*-	*-	*-	*-	*-	*-	*-	*-	*-
!!!system-decoration: [(*)]
!!LO:MO:ori
!!!RDF**kern: l = terminal long
!!LO:MO:mod
!! !!!RDF**kern: i = editorial accidental
!!LO:MO:end
!!!ENC: Filip Voros
!!!END: 2022-06-29
!!!ENC: Jan Barakat
!!!END: 2022-07-16
!!!ENC-modern: Andrzej Kubiczek
!!!END-modern: 2022-08-10
!!!filter-modern: shed -e "s/^custos:/Xcustos:/I" | shed -e "s/TX(.*):t=P:/tx$1:t=P:/LG" | shed -e "s/LO:N:/LO:n:$1/L" | sic -sq | modori -m | autostem -r | tie -s | humtr -p | shed -e "s/-//B"
!!!YEC: Copyright 2022 Narodowy Instytut Fryderyka Chopina (https://polishscores.org)
!!!YEM: License CC-BY-4.0 (https://creativecommons.org/licenses/by/4.0)
